svgs/regular/tarp-droplet.svg

<svg xmlns="http://www.w3.org/2000/svg" viewBox="0 0 576 512"><!--! Font Awesome Pro 6.4.2 by @fontawesome - https://fontawesome.com License - https://fontawesome.com/license (Commercial License) Copyright 2023 Fonticons, Inc. --><path d="M288 160c-35.3 0-64-26.9-64-60c0-24 33.7-70.1 52.2-93.5c6.1-7.7 17.5-7.7 23.6 0C318.3 29.9 352 76 352 100c0 33.1-28.7 60-64 60zM64 128H197.5c7 19.8 20.3 36.6 37.5 48H64c-8.8 0-16 7.2-16 16l0 256c0 8.8 7.2 16 16 16l352 0V384c0-17.7 14.3-32 32-32h80V192c0-8.8-7.2-16-16-16l-170.9 0c17.2-11.4 30.5-28.2 37.5-48H512c35.3 0 64 28.7 64 64V364.1c0 12.7-5.1 24.9-14.1 33.9l-99.9 99.9c-9 9-21.2 14.1-33.9 14.1L64 512c-35.3 0-64-28.7-64-64V192c0-35.3 28.7-64 64-64zm48 80a32 32 0 1 1 0 64 32 32 0 1 1 0-64z"/></svg>

<svg xmlns="http://www.w3.org/2000/svg" viewBox="0 0 576 512"><!--! Font Awesome Pro 6.1.1 by @fontawesome - https://fontawesome.com License - https://fontawesome.com/license (Commercial License) Copyright 2022 Fonticons, Inc. --><path d="M223.1 100C223.1 75.95 257.7 29.93 276.2 6.49C282.3-1.226 293.7-1.226 299.8 6.49C318.3 29.93 352 75.95 352 100C352 133.1 323.3 160 287.1 160C252.7 160 223.1 133.1 223.1 100V100zM63.1 128H197.5C204.5 147.8 217.7 164.6 234.9 176H63.1C55.16 176 47.1 183.2 47.1 192V448C47.1 456.8 55.16 464 63.1 464H416V384C416 366.3 430.3 352 448 352H528V192C528 183.2 520.8 176 512 176H341.1C358.3 164.6 371.5 147.8 378.5 128H512C547.3 128 576 156.7 576 192V364.1C576 376.8 570.9 389.1 561.9 398.1L462.1 497.9C453.1 506.9 440.8 512 428.1 512H64C28.65 512 0 483.3 0 448V192C0 156.7 28.65 128 64 128H63.1zM79.1 240C79.1 222.3 94.33 208 111.1 208C129.7 208 143.1 222.3 143.1 240C143.1 257.7 129.7 272 111.1 272C94.33 272 79.1 257.7 79.1 240V240z"/></svg>
